!!!!SEGMENT: pl-wumfc--n27247_karlowicz-mieczyslaw--pod-jaworem.krn
!!!cenid: 18xx:4252
!!!COM: Karłowicz, Mieczysław
!!!COM-rismID: pe30108288
!!!CDT: 1876/12/11-1909/02/08
!!!CNT: Polish
!!!OTL: Pod jaworem
!!!PDT: 1910
!!!AGN:
!!!YEC: Copyright 2022 Narodowy Instytut Fryderyka Chopina (https://polishscores.org)
!!!YEM: License CC-BY-4.0 (https://creativecommons.org/licenses/by/4.0)
!!!SMS-siglum: PL-Wumfc
!!!SMS-shelfmark: N27247
!!!SMS-shelfwork: W
!!!SMS-variant:
!!!SMS-altvar:
!!!NIFC-rismSourceID: 1001177325
!!!NIFC-rismChildID: 1001177325
!!!NIFC-islandoraID: pl-wumfc:9120
!!!URL-pdf-islandora: https://repozytorium.nifc.pl/islandora/object/pl-wumfc:9120/datastream/PDF/view
!!!URL-scan: https://polish.musicsources.pl/pl/lokalizacje/galeria/druki-muzyczne/11975/2 @EN{Scan on Polish Music Sources Website} @PL{Skany w portalu Dziedzictwo Muzyki Polskiej w otwartym dostępie}
!!!IIIF:
!!!ONB-nifc:
!!!AIN: 2 piano 1 vox
!!!key: e
**kern	**kern	**dynam	**kern	**text	**text	**dynam
*part3	*part2	*	*part1	*	*	*
*staff3	*staff2	*	*staff1	*	*	*
*I"Piano.	*I"Piano.	*	*I"Canto.	*	*	*
*I'pf	*I'pf	*	*I'V	*	*	*
*ICklav	*ICklav	*	*ICvox	*	*	*
*Ipiano	*Ipiano	*	*Ivox	*	*	*
*clefG2	*clefG2	*	*clefG2	*	*	*
*k[f#]	*k[f#]	*	*k[f#]	*	*	*
*e:	*e:	*	*e:	*	*	*
*M4/4	*M4/4	*	*M4/4	*	*	*
*met(c)	*met(c)	*	*met(c)	*	*	*
=1	=1	=1	=1	=1	=1	=1
*^	*	*	*	*	*	*
!	!	!	!	!LO:TX:a:B:t=Andante semplice.	!	!	!
8r	2B\	8r	mf	1r	.	.	.
4a/	.	(16b\LL 16dd#X	.	.	.	.	.
.	.	16cc#X\JJ 16ee	.	.	.	.	.
.	.	8dd#'\L) 8ff#	.	.	.	.	.
4a/	.	(16b\L 16dd#	.	.	.	.	.
.	.	16cc#\JJ 16ee	.	.	.	.	.
.	2B\	8dd#'\L) 8ff#	.	.	.	.	.
4a/	.	16b'\L 16dd#	.	.	.	.	.
.	.	16dd#'\JJ 16ff#	.	.	.	.	.
.	.	8ee'\L 8gg	.	.	.	.	.
[8a/	.	8cc#'\J 8ee	.	.	.	.	.
*v	*v	*	*	*	*	*	*
=2	=2	=2	=2	=2	=2	=2
4B/ 4a]	8dd#X'\ 8ff#	>	1r	.	.	.
.	4b\	.	.	.	.	.
*clefF4	*	*	*	*	*	*
8B\L	.	.	.	.	.	.
(16c\L	(16cc\LL	.	.	.	.	.
16A\JJ	16a\JJ	.	.	.	.	.
8B'\)	8b'\)	.	.	.	.	.
4B\	8r	.	.	.	.	.
.	4r	]]	.	.	.	.
[8B\	.	.	.	.	.	.
=3	=3	=3	=3	=3	=3	=3
*	*^	*	*	*	*	*
!	!	!	!	!	!	!	!LO:DY:a
2E\ 2G 2B]	2e/	2ryy	p	8e/	Cze-	Mäd-	p
.	.	.	.	8f#/	-góż	-chen	.
.	.	.	.	8g/	ty,	sag,	.
.	.	.	.	8a/	dziew-	was	.
2E\ 2A 2B	4f#/	2d#X\	.	4b\	-czy-	weilst	.
.	8g/L	.	.	4b\	-no,	du	.
.	8a/J	.	.	.	.	.	.
!!LO:LB:g=original	!	!	!	!	!	!	!
=4	=4	=4	=4	=4	=4	=4	=4
4E\ 4G 4B	4e/ 4g	2ryy	.	8b\	pod	un-	.
.	.	.	.	8cc\	ja-	-term	.
4G\ 4B	4e/	.	.	8dd\	-wo-	A-	.
.	.	.	.	8cc\	-rem	-horn-	.
4F#\ 4A	2b/	4d#X\	.	4b\	sto-	-bau-	.
4Dn\ 4G#X	.	4fn\	.	4b\	-isz?	-me?	.
=5	=5	=5	=5	=5	=5	=5	=5
*^	*	*	*	*	*	*	*
!	!	!	!	!	!	!	!	!LO:HP:a
2A/	4C\	4a/	2e\ 2a	<	8a/	Czy	Bangt	<
.	.	.	.	.	8b\	cię	dir	.
.	4AA\	4cc/	.	.	8cc\	słoń-	vor	.
.	.	.	.	.	8dd\	-ce	der	.
2G/ 2B	4GG\	4ee/	2e\	.	4ee\	pa-	Son-	.
.	4r	4b/	.	[[	4b\	-li,	-ne?	[[
*v	*v	*	*	*	*	*	*	*
!!LO:LB:g=original	!	!	!	!	!	!	!
=6	=6	=6	=6	=6	=6	=6	=6
!	!	!	!	!	!	!	!LO:DY:a
2FF#/ 2F#	4c#X/ 4a#X	2e\	>	8a#X/	czy	Schreckt	>
.	.	.	.	8f#/	się	dich	.
.	4cn/ 4an	.	.	8an/	wiat-	Win-	.
.	.	.	.	16g/LL	-ru	-des-	.
.	.	.	.	16f#/JJ	.	.	.
2BB/	4B/ 4g	2d#X\	.	4b\	bo-	-we-	.
.	4An/ 4f#	.	]]	4b\	-isz?	-hen?	]]
=7	=7	=7	=7	=7	=7	=7	=7
*^	*	*	*	*	*	*	*
2G/	4E\	8e/L	2B\ 2e	p <	1r	.	.	.
.	.	8f#/	.	.	.	.	.	.
.	4D\	8g/	.	.	.	.	.	.
.	.	8b/J	.	.	.	.	.	.
2G/ 2c	4C\	4.e/ 4.g 4.ee	2ryy	.	.	.	.	.
.	4BB\	.	.	.	.	.	.	.
.	.	8e/ 8ee	.	[[	.	.	.	.
*v	*v	*	*	*	*	*	*	*
*	*v	*v	*	*	*	*	*
=8	=8	=8	=8	=8	=8	=8
4AA\ 4F# 4c	8d#X\L 8cc 8dd#X	f <	1r	.	.	.
.	8f#\ 8ff#	.	.	.	.	.
4FF#/ 4F#	8.a\ 8.cc 8.dd# 8.aa	.	.	.	.	.
.	16b\Jk 16bb	.	.	.	.	.
(8qDD#X/ 8qD#X	.	.	.	.	.	.
[4c\) [4f# [4a	[4cc\ [4ff# [4aa [4ccc	[ sff	.	.	.	.
8c\] 8f#] 8a]	8cc\] 8ff#] 8aa] 8ccc]	.	.	.	.	.
8r	8r	.	.	.	.	.
!!LO:PB:g=original	!	!	!	!	!	!
=9	=9	=9	=9	=9	=9	=9
2FF#/ 2F#	8r	mf	8cc\	Słoń-	,,Fürch-	mf
.	4c/ 4dn 4a	.	8b\	-ce	-te	.
.	.	.	8a/	mię	nicht	.
.	8d#X/ 8a 8cc	.	8cc\	nie	die	.
2GG/ 2G	8r	.	4b\	pa-	Son-	.
.	4e/ 4b	.	.	.	.	.
.	.	.	4e/	-li,	-ne,	.
.	8B/ 8e	.	.	.	.	.
=10	=10	=10	=10	=10	=10	=10
!	!	!	!	!	!	!LO:HP:a
2AA\ 2A	8r	>	8a/	wiat-	nicht	>
.	4fn/ 4a	.	8g/	-ru	des	.
.	.	.	8fn/	się	Win-	.
.	8c/ 8f	.	8a/	nie	-des	.
!	!	!	!	!	!	!LO:DY:a
2BB\ 2F#X	8r	] p	4d#X/	bo-	We-	] p
.	4B/ 4d#X	.	.	.	.	.
.	.	.	4d#/	-ję;	-hen;	.
.	8d#/ 8f#X	.	.	.	.	.
!!LO:LB:g=original	!	!	!	!	!	!
=11	=11	=11	=11	=11	=11	=11
*	*^	*	*	*	*	*
!	!	!	!	!	!	!	!LO:HP:a
8GG/	8e/L	4r	<	8e/	nie	ha-	<
4E\ 4B	8f#/	.	.	8f#X/	mam	-be	.
.	8g/	4g\	.	8g/	ja	kei-	.
8EE/	8b/J	.	.	8b\	chłop-	-nen	.
8CC#X/	2ee/	8r	.	4ee\	-czy-	Lieb-	.
4C#X\ 4G 4B	.	4e\ 4g	.	.	.	.	.
.	.	.	.	4ee\	-ny,	-sten,	[[
8C#\ 8G 8A	.	[8e\ [8g	[[	.	.	.	.
=12	=12	=12	=12	=12	=12	=12	=12
*^	*	*^	*	*	*	*	*
!	!	!	!	!	!	!	!	!	!LO:DY:a
8DD\L	2ryy	4a/	8e\L] 8g]	4ryy	f	8a/	smut-	trau-	f
8A\	.	.	8d\J 8f#	.	.	8a/	-ne	-rig	.
8F#\	.	8.ccn/L	8e\L	4cn\	.	8.cc\	ży-	ist	.
8D\J	.	.	8f#\J	.	.	.	.	.	.
.	.	16b/Jk	.	.	.	16b\	-cie	mein	.
!	!	!	!	!	!	!	!	!	!LO:DY:a
8r	2GG\	2b/	8r	2ryy	>	4b\	mo-	Le-	>
4F#/	.	.	4B\ 4f#	.	.	.	.	.	.
.	.	.	.	.	.	4b\	-je,	-ben,	]]
8Fn/	.	.	8B\ 8fn	.	]]	.	.	.	.
*v	*v	*	*	*	*	*	*	*	*
*	*	*v	*v	*	*	*	*	*
!!LO:LB:g=original	!	!	!	!	!	!	!
=13	=13	=13	=13	=13	=13	=13	=13
!	!	!	!	!	!	!	!LO:HP:a
!	!	!	!	!	!	!	!LO:DY:a
8C\L	N[<8e/L	8r	mf <	8e/	nie	ha-	mf <
8E\	8f#X/	8c\ 8eN]	.	8f#/	mam	-be	.
8BB\	8g/	8r	.	8g/	ja	kei-	.
8E\J 8G	8cc/J	8e\	.	8cc\	chłop-	-nen	.
8AA\L	4.ee/	8r	.	4.ee\	-czy-	Lieb-	.
8E\ 8A 8c	.	8e\ 8a 8cc	.	.	.	.	.
8GG\	.	8r	.	.	.	.	.
8G\J 8B 8e	8b/ 8bb	8ee\	.	8gg\	-ny,	-sten,	.
*	*v	*v	*	*	*	*	*
=14	=14	=14	=14	=14	=14	=14
!	!	!	!	!	!	!LO:DY:a
8FFF#/ 8FF#	4b\ 4cc#X 4ee 4bb	ff	4gg\	smut-	trau-	ff
4F#\ 4B 4c#X 4e	.	.	.	.	.	.
.	4a#X\ 4cc# 4ee 4aa#X	.	4ff#\	-ne	-rig	.
8A#X\ 8c# 8e 8f#	.	.	.	.	.	.
8BBB/ 8BB	4an\ 4dd#X 4aan	.	4dd#X\	ży-	ist	.
4An\ 4B	.	.	.	.	.	.
.	8g\L 8gg	.	4b\	-cie	mein	.
16c#\LL	8f#\J 8ff#	.	.	.	.	.
16d#X\JJ	.	.	.	.	.	.
!!LO:LB:g=original	!	!	!	!	!	!
=15	=15	=15	=15	=15	=15	=15
4EE^/ 4BB	8e/ 8g 8ee	.	2ee\	mo-	Le-	.
.	(16G/LL 16B	.	.	.	.	.
.	16A/JJ 16c	.	.	.	.	.
4EE^/ 4BB	8B'/L) 8d	.	.	.	.	.
.	(<16G/L 16B	.	.	.	.	.
.	16A/JJ 16c	.	.	.	.	.
4EE^/ 4BB	8B'/L) 8d	>	4ee\	-je!	-ben!"	.
.	(16G/L 16B	.	.	.	.	.
.	16A/JJ 16c	.	.	.	.	.
4EE^/ 4BB	16B'/LL) 16d	.	4r	.	.	.
.	16A'/ 16c	.	.	.	.	.
.	16F#'/ 16A	.	.	.	.	.
.	16A'/JJ 16c	.	.	.	.	.
=16	=16	=16	=16	=16	=16	=16
!	!LO:TX:a:i:t=a tempo	!	!	!	!	!
2EE/ 2BB	2G/ 2B	mf	1r	.	.	.
2AA/ 2E	2F#/ 2c 2d#X	.	.	.	.	.
=17	=17	=17	=17	=17	=17	=17
1EE:: 1BB:: 1E::	1G:: 1B:: 1e::	.	1r	.	.	.
==	==	==	==	==	==	==
*-	*-	*-	*-	*-	*-	*-
!!!system-decoration: s1{(s2,s3)}
!!!RDF**kern: > = above
!!!RDF**kern: < = below
!!!RDF**kern: N = linked
!!!ENC: Filip Voros
!!!END: 2022-11-23
!!!ENC: Jan Barakat
!!!END: 2022-12-08
